X:100
T:Mason's Apron, The
R:reel
M:4/4
K:A
a2AB cBAF|EFAB cABc|d2B2 BcBA|GABc defg|
a2AB cBAF|EFAB cABc|dcde fgaf|1 edcB A3B :|2 edcB A2|
|:ed|c2ec fcec|c2ec fedc|d2fd gdfd|d2fd gfed|
c2ec fcec|c2ec fedc|dcde fgaf|edcB A2:|
